!!!COM: plain-white-ts
!!!OTL: rhythm-of-love
!!!RNB: hooktheoryid: BbWgMGBKolX
**kern	**text
*clefG2	*
*k[b-e-a-d-]	*
*M4/4	*
=1	=1
2.r	Ab
8cc	.
8ee-	.
=2	=2
8ff	Db
8ee-	.
4ee-	.
8ff	.
8a-	.
8a-	.
[8cc	.
=3	=3
2cc]	Ab
8r	Abmaj7/G
8a-	.
8cc	.
8ee-	.
=4	=4
8ff	Db
8ee-	.
4ee-	.
8ff	.
16a-	.
8.a-	.
8cc	.
=5	=5
2cc	Ab
[4b-	C7/G
16b-]	.
16cc	.
8b-	.
=6	=6
4a-	Fm
8aa-	.
8aa-	.
8gg	Eb
8ee-	.
16ee-	.
8dd-	.
[16dd-	.
=7	=7
4dd-]	Db
8r	.
16a-	.
[16b-L	.
16b-]J	Eb
8b-	.
16cc	.
16a-	.
16a-	.
[8a-	.
=8	=8
16a-]	Ab
4..a-	.
2r	.
*-	*-